logo/nightwatch.svg

<?xml version="1.0" encoding="UTF-8"?>
<svg width="256px" height="272px" viewBox="0 0 256 272" version="1.1" xmlns="http://www.w3.org/2000/svg" preserveAspectRatio="xMidYMid">
    <title>Nightwatch.js</title>
    <g>
        <polygon fill="#452815" points="5.30310544 184.601724 54.5783446 233.876963 256 233.876963 256 241.375369 54.5764553 241.375369 24.0500649 271.897981 18.7469595 266.598654 47.7222813 237.627111 0 189.904829"></polygon>
        <ellipse fill="#794422" cx="145.135435" cy="141.717794" rx="101.677176" ry="87.2830322"></ellipse>
        <path d="M145.131657,0 C158.343933,0 170.84477,4.26649865 181.970597,11.8698457 L213.174637,0.38729484 C216.179106,-0.721061125 219.295493,1.61695097 219.14569,4.76051526 L219.121974,5.05750384 L214.054381,50.2532659 C223.640763,69.3968831 229.26721,92.7171535 229.26721,117.879325 C229.26721,182.975086 191.59948,235.749203 145.133546,235.749203 C98.6695005,235.749203 61.0036604,182.975086 61.0036604,117.879325 C61.0036604,93.4228026 66.3186889,70.7063214 75.418446,51.8736625 L70.1589326,5.05750384 C69.7943087,1.76644232 73.0098004,-0.755697249 76.1138269,0.38729484 L107.95311,12.1060233 C119.163858,4.35490604 131.784822,0 145.131657,0 Z" fill="#502D17"></path>
        <path d="M178.350218,33.0693116 C200.023616,33.0674224 217.587909,53.082064 217.587909,77.7706931 C217.587909,101.992161 200.676858,121.713475 179.56634,122.445354 C194.212277,132.361011 203.7322,148.437624 203.7322,166.585902 C203.7322,196.704215 177.496281,221.124572 145.131657,221.124572 C112.768922,221.124572 86.534892,196.704215 86.534892,166.585902 C86.534892,148.447744 96.0435153,132.378257 110.673535,122.460834 L109.871777,122.442516 C88.802954,121.664099 71.9329319,101.961759 71.9329319,77.7706931 C71.9329319,53.085932 89.4985526,33.0749793 111.166844,33.0749793 C125.41444,33.0749793 137.888253,41.7266827 144.760996,54.6700011 C151.632033,41.7226366 164.106024,33.0693116 178.350218,33.0693116 Z M144.76026,100.872264 C142.339944,105.430583 139.224755,109.45666 135.581933,112.759972 C138.689233,112.284391 141.8795,112.037785 145.131657,112.037785 C148.077297,112.037957 150.97217,112.240386 153.801115,112.630967 C150.216649,109.353889 147.149937,105.372531 144.76026,100.872264 Z" fill="#FFFFFF"></path>
        <path d="M141.912386,93.0017712 C144.077459,92.1478333 146.503247,92.1742827 148.647538,93.0716732 C155.488487,95.9168733 160.385406,99.4119731 164.689101,104.494037 C166.11548,106.181131 166.200496,108.612587 165.027276,110.481049 C160.544102,117.626166 155.110639,122.997284 148.182784,128.323061 C146.488133,129.624749 144.113355,129.624749 142.418704,128.323061 C135.490849,122.999173 130.057386,117.626166 125.572323,110.481049 C124.408549,108.62959 124.510568,106.224584 125.921833,104.554493 C130.391782,99.2740583 134.754044,95.8186327 141.912386,93.0017712 Z" fill="#FF7F2B"></path>
        <path d="M141.237927,138.93305 C141.237927,143.265084 137.729602,146.777187 133.399457,146.777187 C129.063644,146.777187 125.55343,143.265084 125.55343,138.93305 L141.237927,138.93305 Z M165.065061,138.93305 C165.065061,143.265084 161.554847,146.777187 157.220923,146.777187 C152.887,146.777187 149.376786,143.265084 149.376786,138.93305 L165.065061,138.93305 Z M129.328138,154.566537 C129.328138,158.90235 125.816035,162.410674 121.482111,162.410674 C117.150077,162.410674 113.639863,158.90235 113.639863,154.566537 L129.328138,154.566537 Z M153.149604,154.566537 C153.149604,158.90235 149.64128,162.410674 145.309245,162.410674 C140.977211,162.410674 137.463219,158.90235 137.463219,154.566537 L153.149604,154.566537 Z M176.978628,154.566537 C176.978628,158.90235 173.464636,162.410674 169.13449,162.410674 C164.804345,162.410674 161.292242,158.90235 161.292242,154.566537 L176.978628,154.566537 Z M117.412682,169.858071 C117.412682,174.195773 113.904357,177.702208 109.570433,177.702208 C105.238399,177.702208 101.730074,174.195773 101.730074,169.858071 L117.412682,169.858071 Z M141.237927,169.858071 C141.237927,174.195773 137.729602,177.702208 133.399457,177.702208 C129.063644,177.702208 125.55343,174.195773 125.55343,169.858071 L141.237927,169.858071 Z M165.065061,169.858071 C165.065061,174.195773 161.554847,177.702208 157.220923,177.702208 C152.887,177.702208 149.376786,174.195773 149.376786,169.858071 L165.065061,169.858071 Z M188.886527,169.858071 C188.886527,174.195773 185.378203,177.702208 181.046168,177.702208 C176.714134,177.702208 173.202031,174.195773 173.202031,169.858071 L188.886527,169.858071 Z M129.328138,185.495336 C129.328138,189.831149 125.816035,193.339473 121.482111,193.339473 C117.150077,193.339473 113.639863,189.831149 113.639863,185.495336 L129.328138,185.495336 Z M153.149604,185.495336 C153.149604,189.831149 149.64128,193.339473 145.309245,193.339473 C140.977211,193.339473 137.463219,189.831149 137.463219,185.495336 L153.149604,185.495336 Z M176.978628,185.495336 C176.978628,189.831149 173.464636,193.339473 169.13449,193.339473 C164.804345,193.339473 161.292242,189.831149 161.292242,185.495336 L176.978628,185.495336 Z M141.237927,200.78687 C141.237927,205.122683 137.729602,208.631007 133.399457,208.631007 C129.063644,208.631007 125.55343,205.122683 125.55343,200.78687 L141.237927,200.78687 Z M165.065061,200.78687 C165.065061,205.122683 161.554847,208.631007 157.220923,208.631007 C152.887,208.631007 149.376786,205.122683 149.376786,200.78687 L165.065061,200.78687 Z" fill="#D6D6D6"></path>
        <path d="M116.290471,95.595702 C128.898919,95.595702 139.120085,85.3745357 139.120085,72.7660881 C139.120085,60.1576405 128.898919,49.9364742 116.290471,49.9364742 C103.682024,49.9364742 93.4608572,60.1576405 93.4608572,72.7660881 C93.4608572,85.3745357 103.682024,95.595702 116.290471,95.595702 Z M172.145944,95.5994805 C184.756478,95.5994805 194.979336,85.3766225 194.979336,72.7660881 C194.979336,60.1555537 184.756478,49.9326957 172.145944,49.9326957 C159.53541,49.9326957 149.312552,60.1555537 149.312552,72.7660881 C149.312552,85.3766225 159.53541,95.5994805 172.145944,95.5994805 Z" fill="#C2DDEB"></path>
        <path d="M116.290471,87.0506553 C124.17962,87.0506553 130.575038,80.6552367 130.575038,72.7660881 C130.575038,64.8769394 124.17962,58.4815208 116.290471,58.4815208 C108.401322,58.4815208 102.005904,64.8769394 102.005904,72.7660881 C102.005904,80.6552367 108.401322,87.0506553 116.290471,87.0506553 Z M172.145944,87.0506553 C180.035093,87.0506553 186.430511,80.6552367 186.430511,72.7660881 C186.430511,64.8769394 180.035093,58.4815208 172.145944,58.4815208 C164.256795,58.4815208 157.861377,64.8769394 157.861377,72.7660881 C157.861377,80.6552367 164.256795,87.0506553 172.145944,87.0506553 Z" fill="#000000"></path>
        <path d="M119.88759,72.7641988 C122.807024,72.7641988 125.173692,70.3975302 125.173692,67.4780966 C125.173692,64.5586629 122.807024,62.1919943 119.88759,62.1919943 C116.968156,62.1919943 114.601488,64.5586629 114.601488,67.4780966 C114.601488,70.3975302 116.968156,72.7641988 119.88759,72.7641988 Z M175.743063,72.7660881 C178.66354,72.7660881 181.031054,70.3985736 181.031054,67.4780966 C181.031054,64.5576195 178.66354,62.1901051 175.743063,62.1901051 C172.822586,62.1901051 170.455071,64.5576195 170.455071,67.4780966 C170.455071,70.3985736 172.822586,72.7660881 175.743063,72.7660881 Z" fill="#FFFFFF"></path>
        <path d="M192.521431,235.773763 C192.521431,241.792892 189.196363,246.670917 185.108041,246.670917 C181.010273,246.670917 177.687094,241.792892 177.687094,235.773763 C177.687094,241.792892 174.365805,246.670917 170.268036,246.670917 C166.174047,246.670917 162.848979,241.792892 162.848979,235.773763 C162.848979,241.792892 159.531468,246.670917 155.43181,246.670917 C151.33971,246.670917 148.016531,241.792892 148.016531,235.773763 C148.016531,227.264612 157.948282,220.372653 170.201913,220.372653 C182.451765,220.372653 192.385406,227.264612 192.385406,235.773763 L192.521431,235.773763 Z M141.918054,235.773763 C141.918054,241.792892 138.594875,246.670917 134.500886,246.670917 C130.405006,246.670917 127.081828,241.792892 127.081828,235.773763 C127.081828,241.792892 123.764317,246.670917 119.664659,246.670917 C115.56878,246.670917 112.253159,241.792892 112.253159,235.773763 C112.253159,241.792892 108.928091,246.670917 104.832212,246.670917 C100.738222,246.670917 97.4169323,241.792892 97.4169323,235.773763 C97.4169323,227.264612 107.348683,220.372653 119.600425,220.372653 C131.854056,220.372653 141.791475,227.264612 141.791475,235.773763 L141.918054,235.773763 Z" fill="#FF7F2B"></path>
    </g>
</svg>

<svg viewBox="0 0 256 272" xmlns="http://www.w3.org/2000/svg"><path fill="#452815" d="M5.3 184.6l49.27 49.27 201.42 0 0 7.49 -201.43 0 -30.53 30.52 -5.31-5.3 28.97-28.98 -47.73-47.73Z"/><path fill="#794422" d="M145.13 54.43a101.67 87.28 0 1 0 0 174.56 101.67 87.28 0 1 0 0-174.57Z"/><path fill="#502D17" d="M145.13 0c13.21 0 25.71 4.26 36.83 11.86L213.16.37c3-1.11 6.12 1.22 5.97 4.37l-.03.29 -5.07 45.19c9.58 19.14 15.21 42.46 15.21 67.62 0 65.09-37.67 117.86-84.14 117.86s-84.13-52.78-84.13-117.87c0-24.46 5.31-47.18 14.41-66.01L70.12 5c-.37-3.3 2.85-5.82 5.95-4.68l31.83 11.71C119.11 4.27 131.73-.08 145.07-.08Z"/><path fill="#FFF" d="M178.35 33.06c21.67-.01 39.23 20.01 39.23 44.7 0 24.22-16.92 43.94-38.03 44.67 14.64 9.91 24.16 25.99 24.16 44.14 0 30.11-26.24 54.53-58.61 54.53 -32.37 0-58.6-24.43-58.6-54.54 0-18.14 9.5-34.21 24.13-44.13l-.81-.02c-21.07-.78-37.94-20.49-37.94-44.68 0-24.69 17.56-44.7 39.23-44.7 14.24 0 26.72 8.65 33.59 21.59 6.87-12.95 19.34-21.61 33.58-21.61Zm-33.59 67.8c-2.43 4.55-5.54 8.58-9.18 11.88 3.1-.48 6.29-.73 9.54-.73 2.94 0 5.84.2 8.66.59 -3.59-3.28-6.66-7.26-9.05-11.76Z"/><path fill="#FF7F2B" d="M141.91 93c2.16-.86 4.59-.83 6.73.06 6.84 2.84 11.73 6.34 16.04 11.42 1.42 1.68 1.51 4.11.33 5.98 -4.49 7.14-9.92 12.51-16.85 17.84 -1.7 1.3-4.07 1.3-5.77 0 -6.93-5.33-12.37-10.7-16.85-17.85 -1.17-1.86-1.07-4.26.34-5.93 4.46-5.29 8.83-8.74 15.99-11.56Z"/><path fill="#D6D6D6" d="M141.23 138.93c0 4.33-3.51 7.84-7.84 7.84 -4.34 0-7.85-3.52-7.85-7.85h15.68Zm23.82 0c0 4.33-3.52 7.84-7.85 7.84 -4.34 0-7.85-3.52-7.85-7.85h15.68Zm-35.74 15.63c0 4.33-3.52 7.84-7.85 7.84 -4.34 0-7.85-3.51-7.85-7.85h15.68Zm23.82 0c0 4.33-3.51 7.84-7.85 7.84s-7.85-3.51-7.85-7.85h15.68Zm23.82 0c0 4.33-3.52 7.84-7.85 7.84 -4.34 0-7.85-3.51-7.85-7.85h15.68Zm-59.57 15.29c0 4.33-3.51 7.84-7.85 7.84s-7.85-3.51-7.85-7.85h15.68Zm23.82 0c0 4.33-3.51 7.84-7.84 7.84 -4.34 0-7.85-3.51-7.85-7.85h15.68Zm23.82 0c0 4.33-3.52 7.84-7.85 7.84 -4.34 0-7.85-3.51-7.85-7.85H165Zm23.82 0c0 4.33-3.51 7.84-7.85 7.84s-7.85-3.51-7.85-7.85h15.68Zm-59.56 15.63c0 4.33-3.52 7.84-7.85 7.84 -4.34 0-7.85-3.51-7.85-7.85h15.68Zm23.82 0c0 4.33-3.51 7.84-7.85 7.84s-7.85-3.51-7.85-7.85h15.68Zm23.82 0c0 4.33-3.52 7.84-7.85 7.84 -4.34 0-7.85-3.51-7.85-7.85h15.68Zm-35.75 15.29c0 4.33-3.51 7.84-7.84 7.84 -4.34 0-7.85-3.51-7.85-7.85h15.68Zm23.82 0c0 4.33-3.52 7.84-7.85 7.84 -4.34 0-7.85-3.51-7.85-7.85h15.68Z"/><path fill="#C2DDEB" d="M116.29 95.59c12.6 0 22.82-10.23 22.82-22.83 0-12.61-10.23-22.83-22.83-22.83 -12.61 0-22.83 10.22-22.83 22.82s10.22 22.82 22.82 22.82Zm55.85 0c12.61 0 22.83-10.23 22.83-22.84 0-12.62-10.23-22.84-22.84-22.84 -12.62 0-22.84 10.22-22.84 22.83 0 12.61 10.22 22.83 22.83 22.83Z"/><path d="M116.29 87.05c7.88 0 14.28-6.4 14.28-14.29 0-7.89-6.4-14.29-14.29-14.29 -7.89 0-14.29 6.39-14.29 14.28 0 7.88 6.39 14.28 14.28 14.28Zm55.85 0c7.88 0 14.28-6.4 14.28-14.29 0-7.89-6.4-14.29-14.29-14.29 -7.89 0-14.29 6.39-14.29 14.28 0 7.88 6.39 14.28 14.28 14.28Z"/><path fill="#FFF" d="M119.88 72.76c2.91 0 5.28-2.37 5.28-5.29s-2.37-5.29-5.29-5.29 -5.29 2.36-5.29 5.28c0 2.91 2.36 5.28 5.28 5.28Zm55.85 0c2.92 0 5.28-2.37 5.28-5.29 0-2.93-2.37-5.29-5.29-5.29 -2.93 0-5.29 2.36-5.29 5.28 0 2.92 2.36 5.28 5.28 5.28Z"/><path fill="#FF7F2B" d="M192.52 235.77c0 6.01-3.33 10.89-7.42 10.89 -4.1 0-7.43-4.88-7.43-10.9 0 6.01-3.33 10.89-7.42 10.89 -4.1 0-7.42-4.88-7.42-10.9 0 6.01-3.32 10.89-7.42 10.89s-7.42-4.88-7.42-10.9c0-8.51 9.93-15.41 22.18-15.41 12.24 0 22.18 6.89 22.18 15.4h.13Zm-50.61 0c0 6.01-3.33 10.89-7.42 10.89 -4.1 0-7.42-4.88-7.42-10.9 0 6.01-3.32 10.89-7.42 10.89s-7.42-4.88-7.42-10.9c0 6.01-3.33 10.89-7.43 10.89s-7.42-4.88-7.42-10.9c0-8.51 9.93-15.41 22.18-15.41s22.19 6.89 22.19 15.4h.12Z"/></svg>
